X: 37472
T: Slide From Grace
R: slip jig
M: 9/8
K: Bminor
G2E EDE GAB|G2E EDB AFD|G2E EDE GAB|d2B BAG A2B|
G2E EDE GAB|G2E EDB AFD|G2E EDE GAB|d2B BAG AB/c/d||
e3 dBA GAB|D3 DBD GBd|e3 dBA GAB|B2A A2G AB/c/d|
e3 dBA GAB|D3 DBD EGB|A2G B2d EGA|zB/c/d edB A2B||

